korla/status/symbolic/network-vpn-disconnected-symbolic.svg

<svg style="clip-rule:evenodd;fill-rule:evenodd;stroke-linejoin:round;stroke-miterlimit:2" version="1.1" viewBox="0 0 16 16" xmlns="http://www.w3.org/2000/svg">
 <path d="m11 11v1c0 0.28 0.1 0.54 0.28 0.72l0.78 0.78-0.78 0.78c-0.18 0.19-0.28 0.45-0.28 0.72v1h1c0.28 0 0.54-0.1 0.72-0.28l0.78-0.78 0.78 0.78c0.18 0.18 0.45 0.28 0.72 0.28h1v-1c0-0.27-0.1-0.53-0.28-0.72l-0.78-0.78 0.78-0.78c0.18-0.18 0.28-0.44 0.28-0.72v-1h-1c-0.27 0-0.54 0.1-0.72 0.28l-0.78 0.79-0.78-0.79c-0.18-0.18-0.44-0.28-0.72-0.28h-1z" style="fill-rule:nonzero;fill:rgb(223,223,223)"/>
 <g transform="translate(0 -2.16377)">
  <path d="m4.5 4c-2.48 0-4.5 2.01-4.5 4.5s2.02 4.5 4.5 4.5c1.91 0 3.6-1.2 4.24-3h3.26v2h3v-2h1v-3h-7.26c-0.64-1.8-2.33-3-4.24-3zm0 1c1.937 0 3.5 1.563 3.5 3.5s-1.563 3.5-3.5 3.5-3.5-1.563-3.5-3.5 1.563-3.5 3.5-3.5z" style="fill-opacity:.5;fill-rule:nonzero;fill:rgb(223,223,223)"/>
 </g>
</svg>

<svg xmlns="http://www.w3.org/2000/svg" width="16" height="16" version="1.1">
 <path style="opacity:0.3;fill:#dfdfdf" d="M 4.5,3 C 2.02,3 0,5.02 0,7.5 0,9.99 2.02,12 4.5,12 6.41,12 8.1,10.8 8.74,9 H 12 V 10 H 15 V 9 H 16 V 6 H 8.74 C 8.1,4.21 6.41,3.01 4.5,3 Z M 4.5,6 C 5.33,6 6,6.67 6,7.5 6,8.33 5.33,9 4.5,9 3.67,9 3,8.33 3,7.5 3,6.67 3.67,6 4.5,6 Z"/>
 <path style="fill:#dfdfdf" d="M 11,11 V 12 C 11,12.28 11.1,12.54 11.28,12.72 L 12.06,13.5 11.28,14.28 C 11.1,14.47 11,14.73 11,15 V 16 H 12 C 12.28,16 12.54,15.9 12.72,15.72 L 13.5,14.94 14.28,15.72 C 14.46,15.9 14.73,16 15,16 H 16 V 15 C 16,14.73 15.9,14.47 15.72,14.28 L 14.94,13.5 15.72,12.72 C 15.9,12.54 16,12.28 16,12 V 11 H 15 C 14.73,11 14.46,11.1 14.28,11.28 L 13.5,12.07 12.72,11.28 C 12.54,11.1 12.28,11 12,11 Z"/>
</svg>
